X:1
T:Title
%%score { 1 | ( 2 3 ) }
L:1/8
Q:1/4=112
M:4/4
K:G
V:1 treble nm="Grand Piano"
V:2 bass 
V:3 bass 
V:1
 [DB]2 [B,D]2 [CE]2 [B,D]2 | [Ec]2 E2 E2 G2 | F3 G A2 [DF]2 | [DG]2 [DA]2 [DB]4 | %4
w: J.~H.~Hall * * *||||
 [DB]2 [B,D]2 [CE]2 [B,D]2 | [Ec]2 E2 E2 G2 | F3 G A2 F2 | [B,DG]6 z2 | d2 B2 Bc d2 | c2 c2 c4 | %10
w: ||||||
 [Fc]2 [FA]2 [FA][GB] [Ac]2 | B2 B2 B4 | [DB]2 [B,D]2 [CE]2 [B,D]2 | [Ec]2 E2 E2 G2 | F3 G A2 F2 | %15
w: |||||
[M:8/4] [B,DG]8 z8 |] %16
w: |
V:2
 [G,,G,]2 [G,,G,]2 [G,,G,]2 [G,,G,]2 | [C,G,]2 [C,G,C]2 [G,C]2 [CE]2 | %2
 [D,A,D]3 [D,B,D] [D,CD]2 [C,A,]2 | [B,,G,]2 [A,,F,]2 [G,,G,]4 | %4
 [G,,G,]2 [G,,G,]2 [G,,G,]2 [G,,G,]2 | [C,G,]2 [C,G,C]2 [G,C]2 [CE]2 | %6
 [D,A,D]3 [D,B,D] [D,CD]2 [D,A,D]2 | [G,,G,]6 z2 | z4 .D2 z2 | [A,DF]2 [A,DF]2 [A,DF]4 | %10
 [D,D]2 [D,D]2 [D,D]2 [D,D]2 | [G,DG]2 [G,DG]2 [G,DG]4 | [G,,G,]2 [G,,G,]2 [G,,G,]2 [G,,G,]2 | %13
 z4 [G,C]2 z2 | [D,A,D]3 [D,B,D] [D,CD]2 [D,A,D]2 |[M:8/4] [G,,G,]8 z8 |] %16
V:3
 x8 | z4 C,4 | x8 | x8 | x8 | z4 C,4 | x8 | x8 | [G,B,G]2 [G,DG]2 [G,G]-[G,CG] [G,B,G]2 | x8 | x8 | %11
 x8 | x8 | [C,G,]2 [C,G,C]2 C,2- [C,CE]2 | x8 |[M:8/4] x16 |] %16

